icon-themes/breeze_svg/cmd/32/entirecolumn.svg

<svg viewBox="0 0 32 32" xmlns="http://www.w3.org/2000/svg"><path d="m4 4v24h8v-1h-3v-7h3v-1h-3v-6h3v-1h-3v-7h3v-1zm17 0v1h3v7h-3v1h3v6h-3v1h3v7h-3v1h7v-24zm-16 1h3v7h-3zm20 0h2v7h-2zm-20 8h3v6h-3zm20 0h2v6h-2zm-20 7h3v7h-3zm20 0h2v7h-2z" fill="#4d4d4d"/><path d="m12 4v10 1 13h1 7 1v-13-1-10h-1-2.732422-1.535156-2.732422zm1 1h1.566406l-1.566406 1.3417969zm3.101562 0h3.13086l-6.232422 5.341797v-2.6835939l.324219-.2773437zm3.898438.6582031v2.6816407l-.326172.28125-6.27539 5.3789062-.398438.341797v-.341797-2.341797l.324219-.277344zm0 4v2.6816409l-.326172.28125-1.609375 1.378906-1.166015 1-3.898438 3.341797v-2.683594l.324219-.277344.445312-.380859 1.166016-1zm0 3.9999999v.341797 1 1.339844l-.326172.28125-6.673828 5.720703v-2.683594l.324219-.277344 5.111328-4.380859 1.03125-.884766.134765-.115234zm0 4v2.681641l-.326172.28125-6.673828 5.720703v-2.683594l.324219-.277344zm0 4v2.681641l-.326172.28125-2.77539 2.378906h-3.128907zm0 4v1.341797h-1.564453z" fill="#1d99f3"/></svg>

<svg xmlns="http://www.w3.org/2000/svg" viewBox="0 0 32 32">
 <path 
     style="fill:#4d4d4d" 
     d="M 4 4 L 4 28 L 12 28 L 12 27 L 9 27 L 9 20 L 12 20 L 12 19 L 9 19 L 9 13 L 12 13 L 12 12 L 9 12 L 9 5 L 12 5 L 12 4 L 4 4 z M 21 4 L 21 5 L 24 5 L 24 12 L 21 12 L 21 13 L 24 13 L 24 19 L 21 19 L 21 20 L 24 20 L 24 27 L 21 27 L 21 28 L 28 28 L 28 4 L 21 4 z M 5 5 L 8 5 L 8 12 L 5 12 L 5 5 z M 25 5 L 27 5 L 27 12 L 25 12 L 25 5 z M 5 13 L 8 13 L 8 19 L 5 19 L 5 13 z M 25 13 L 27 13 L 27 19 L 25 19 L 25 13 z M 5 20 L 8 20 L 8 27 L 5 27 L 5 20 z M 25 20 L 27 20 L 27 27 L 25 27 L 25 20 z "
     />
 <path 
     style="fill:#1d99f3" 
     d="M 12 4 L 12 14 L 12 15 L 12 28 L 13 28 L 20 28 L 21 28 L 21 15 L 21 14 L 21 4 L 20 4 L 17.267578 4 L 15.732422 4 L 13 4 L 12 4 z M 13 5 L 14.566406 5 L 13 6.3417969 L 13 5 z M 16.101562 5 L 19.232422 5 L 13 10.341797 L 13 7.6582031 L 13.324219 7.3808594 L 16.101562 5 z M 20 5.6582031 L 20 8.3398438 L 19.673828 8.6210938 L 13.398438 14 L 13 14.341797 L 13 14 L 13 11.658203 L 13.324219 11.380859 L 20 5.6582031 z M 20 9.6582031 L 20 12.339844 L 19.673828 12.621094 L 18.064453 14 L 16.898438 15 L 13 18.341797 L 13 15.658203 L 13.324219 15.380859 L 13.769531 15 L 14.935547 14 L 20 9.6582031 z M 20 13.658203 L 20 14 L 20 15 L 20 16.339844 L 19.673828 16.621094 L 13 22.341797 L 13 19.658203 L 13.324219 19.380859 L 18.435547 15 L 19.466797 14.115234 L 19.601562 14 L 20 13.658203 z M 20 17.658203 L 20 20.339844 L 19.673828 20.621094 L 13 26.341797 L 13 23.658203 L 13.324219 23.380859 L 20 17.658203 z M 20 21.658203 L 20 24.339844 L 19.673828 24.621094 L 16.898438 27 L 13.769531 27 L 20 21.658203 z M 20 25.658203 L 20 27 L 18.435547 27 L 20 25.658203 z "
     />
</svg>
